X:1
T:Above and Beyond
T:Above and Beyond
T:Audiomachine
C:Audiomachine
%%score { ( 1 4 ) | ( 2 3 ) }
L:1/8
Q:1/4=130
M:4/4
K:G
V:1 treble nm="Piano" snm="Pno."
V:4 treble 
V:2 bass 
V:3 bass 
V:1
!mp! [B,DG]4 [B,F]2 [B,G]2 | [G,E]4 [G,D]2 C2 | [D,B,]4 [G,D]2 B,2 | [G,A,-]4 [F,A,]4 | %4
 [B,EG]4 [B,F]2 [B,G]2 | [G,E]4 [G,D]2 [G,E]2 | [B,D]4 [DG]4 | [A,DF]8 | %8
"_cresc." [B,G]4 [B,F]2 [B,G]2 |!<(! [G,E]4 [G,D]2 [G,E]2!<)! | [D,B,]4 [G,D]2 [D,B,]2 | %11
 [G,A,]4 [F,A,]4 | [B,G]4 [B,F]2 [B,G]2 | [G,E]4 [G,D]2 [G,E]2 | [G,D]4 [B,DG]4 | %15
 [A,G]2 [A,F]2 [A,G]2 [DA]2 |!f! [CEc]4 [EAB]2 [CA]2 | [CA]4 [CGA]2 [C=Fc]2 | [CE]4 [CG]2 [CEc]2 | %19
 [B,D]8 | [Ec]4 [EAB]2 [CAc]2 | [CA]4 [CGA]2 [C=Fc]2 | [CG]4 [Cc]4 | [A,D]2 [DF]2 [DG]2 [DA]2 | %24
 [B,G]4 [B,F]2 [B,E]2 | [G,E]4 [G,D]2 [G,C]2 | [G,B,]4 D2 B,2 | [G,A,]4 A,4 | %28
 [B,G]4 [B,F]2 [B,G]2 | [G,E]4 [G,D]2 [G,E]2 | [B,D]4 [DG]4 | [A,G]2 F2 [A,G]2 [DA]2 | %32
 [Ec]4 [DB]2 A2 | [CA]4 [CG]2 [C=F]2 | [CG]6 [Ec]2 | [Dc]2 B2 A2 B2 | [Ec]4 [EB]2 [EA]2 | %37
 [CA]4 [CG]2 [C=F]2 | [CG]4 [Ec]4 | d8 |!ff! [GBeg]4 [FBf]2 [EBe]2 | [EGce]4 [DGd]2 [CGc]2 | %42
 [DGB]4 [GBd]2 [DGB]2 | [A,-D-GA-]4 [A,DFA]4 | [GBg]4 [FBf]2 [GBg]2 | [EGce]4 [DGd]2 [EGe]2 | %46
 [DGBd]4 [Gdg]4 | [Adg]2 [Adf]2 [Adg]2 [Ada]2 | [ceac']4 [ceb]2 [cea]2 | [Ac=fa]4 [Acg]2 [Acf]2 | %50
 [Gce]4 [Gceg]2 [Gce]2 | [Gcd]2 B2 [Adg]2 G2 | [ceac']4 [ceb]2 [cea]2 | [Ac=fa]4 [Acg]2 [Acf]2 | %54
 [Gceg]4 [egc']4 | [dfd']2 [DF]2 [DG]2 [DA]2 |!mf! [B,G][B,G][B,G][B,G] [B,F][B,F][B,G][B,G] | %57
"_cresc."!<(! [CG][CG][CG][CG] [CF][CF][CG][CG]!<)! | %58
 [B,DG][B,DG][B,DG][B,DG] [B,DF][B,DF][B,DG][B,DG] | %59
 [A,DA][A,DA][A,DG][A,DG] [A,DF][A,DF][A,DE][A,DE] | %60
!<(! [B,EG][B,EG][B,EG][B,EG] [B,EF][B,EF][B,EG][B,EG]!<)! | %61
 [CGc][CGc][CGc][CGc] [CGB][CGB][CGA][CGA] | [DB][DB][DB][DB] [DA][DA][DB][DB] | %63
 [DFd][Dd][Dd][Dd] [Ee][Ee][Ff][Ff] | [CEAc]4 [CEB]2 [CEc]2 | [C=FAc]4 [CFB]2 [CFc]2 | %66
 [CEGc]4 [CEG]2 [CEGc]2 | [DGBd]4 [DGc]2 [DGB]2 | [CEAc]4 [CEB]2 [CEc]2 | %69
 [=FAc=f]4 [EGBe]2 [DFAd]2 | [EGce]4 [EGd]2 [EGc]2 | [DGcd]4 [GB]4 | [ceac']4 [Bceb]2 [cec']2 | %73
 [c=fac']4 [Bcfb]2 [cfc']2 |!f! [cegc']4 [Gceg]2 [cegc']2 |"_cresc." [dgbd']4 [cdgc']2 [dgbd']2 | %76
 [eac'e']2 [ea]2 [Beb]2 [ceac']2 | [=fac'=f']2 [fac']2 [dfad']2 [efac'e']2 | %78
"_cresc." [gc'e'g']2 [gc']2 [egc'e']2 [=fgc'=f']2 |!fff! [g-c'd'-g'-]8 | [gbd'g']8 | [gbd'g']8 | %82
 [G,CGc]8- | [G,CGc]8 |] %84
V:2
 [E,,E,]8 | [C,,C,]8 | [G,,,G,,]8 | [D,,D,]8 | [E,,E,]8 | [C,,C,]8 | [G,,,G,,]8 | [D,,D,]8 | %8
 E,,E,,E,,E,, E,,E,,E,,E,, | C,,C,,C,,C,, C,,C,,C,,C,, | G,,G,,G,,G,, G,,G,,G,,G,, | %11
 D,,D,,D,,D,, D,,D,,D,,D,, |!mf! E,,E,,E,,E,, E,,E,,E,,E,, | C,,C,,C,,C,, C,,C,,C,,C,, | %14
 G,,,G,,,G,,,G,,, G,,,G,,,G,,,G,,, | D,,D,,D,,D,, D,,D,,D,,D,, | A,,A,,A,,A,, A,,A,,A,,A,, | %17
 =F,,F,,F,,F,, F,,F,,F,,F,, | C,,C,,C,,C,, C,,C,,C,,C,, | G,,G,,G,,G,, G,,G,,G,,G,, | %20
 A,,A,,A,,A,, A,,A,,A,,A,, | =F,,F,,F,,F,, F,,F,,F,,F,, | C,,C,,C,,C,, C,,C,,C,,C,, | %23
 D,,D,,D,,D,, D,,D,,D,,D,, |!ped! E,,B,,E,F, G,F,E,B,,!ped-up! | %25
!ped! C,,G,,C,G,, D,G,,E,C,!ped-up! |!ped! G,,D,G,A, B,A,G,D,!ped-up! | %27
!ped! D,,A,,G,A,, F,A,,D,A,,!ped-up! |!ped! E,,B,,E,F, G,F,E,B,,!ped-up! | %29
!ped! C,,G,,D,G,, E,G,,C,G,,!ped-up! |!ped! G,,D,G,A, B,A,G,D,!ped-up! | %31
!ped! D,,A,,D,A,, E,A,,F,D,!ped-up! |!ped! A,,E,A,E, B,E,CE,!ped-up! | %33
!ped! =F,,C,G,C, A,C,=F,C,!ped-up! |!ped! C,,G,,C,D, E,G,CG,!ped-up! | %35
!ped! G,,D,G,A, B,DGD!ped-up! |!ped! A,,E,A,E, B,E,CE,!ped-up! | %37
!ped! =F,,C,G,C, A,C,=F,C,!ped-up! |!ped! C,,G,,C,D, E,G,CG,!ped-up! | %39
!ped! D,,A,,D,E, F,A, D2!ped-up! |!ped! E,,B,,E,F, G,F,E,B,,!ped-up! | %41
!ped! C,,G,,C,G,, D,G,,E,C,!ped-up! |!ped! G,,D,G,A, B,A,G,D,!ped-up! | %43
!ped! D,,A,,G,A,, F,A,,D,A,,!ped-up! |!ped! E,,B,,E,F, G,F,E,B,,!ped-up! | %45
!ped! C,,G,,D,G,, E,G,,C,G,,!ped-up! |!ped! G,,D,G,A, B,A,G,D,!ped-up! | %47
!ped! D,,A,,D,A,, E,A,,F,D,!ped-up! |!ped! A,,E,A,E, B,E,CE,!ped-up! | %49
!ped! =F,,C,=F,G, A,C =F2!ped-up! |!ped! C,,G,,D,G,, E,G,,C,G,,!ped-up! | %51
!ped! G,,D,G,D, A,D,B,D,!ped-up! |!ped! A,,E,A,E, B,E,CE,!ped-up! | %53
!ped! =F,,C,G,C, A,C,=F,C,!ped-up! |!ped! C,,G,,C,D, E,G, C2!ped-up! | %55
!ped! [D,,D,] D,,2 D,, D,,D,,!8vb(! D,,,2!ped-up!!8vb)! |!ped! [E,,,E,,]4 E,2 E,,2!ped-up! | %57
!ped! [C,,C,]4 C,2 C,,2!ped-up! |!ped! [G,,,G,,]4 G,,2 G,,,2!ped-up! | %59
!8vb(!!ped! [D,,,D,,]4 D,,2 D,,,2!8vb)!!ped-up! |!ped! [E,,,E,,]4 E,2 E,,2!ped-up! | %61
!ped! [C,,C,]4 C,2 C,,2!ped-up! |!ped! [G,,,G,,]4 G,,2 G,,,2!ped-up! | %63
!8vb(! [D,,,D,,]4 D,,2 D,,,2!8vb)! |!f!!ped! [A,,,A,,]A,,A,,A,, A,,A,,A,,,A,,,!ped-up! | %65
!ped! [=F,,,=F,,]F,,F,,F,, F,,F,,F,,,F,,,!ped-up! |!ped! [C,,C,]C,C,C, C,C,C,,C,,!ped-up! | %67
!ped! [G,,,G,,]G,,G,,G,, G,,G,,G,,,G,,,!ped-up! |!ped! [A,,,A,,]A,,A,,A,, A,,A,,A,,,A,,,!ped-up! | %69
!ped! [=F,,,=F,,]F,,F,,F,, F,,F,,F,,,F,,,!ped-up! |!ped! [C,,C,]C,C,C, C,C,C,,C,,!ped-up! | %71
!ped! [G,,,G,,]G,,G,,G,, G,,G,,G,,,G,,,!ped-up! | %72
!ped! [A,,,A,,]A,,,A,,,A,,, A,,A,,A,,,A,,,!ped-up! | %73
!ped! [=F,,,=F,,]F,,,F,,,F,,, F,,F,,F,,,F,,,!ped-up! |!ped! [C,,C,]C,,C,,C,, C,C,C,,C,,!ped-up! | %75
!ped! [G,,,G,,]G,,,G,,,G,,, G,,G,,G,,,G,,,!ped-up! | %76
!ff!!ped! [A,,,A,,]A,,,A,,,A,,, A,,A,,A,,,A,,,!ped-up! | %77
!ped! [=F,,,=F,,]F,,,F,,,F,,, F,,F,,F,,,F,,,!ped-up! |!ped! [C,,C,]C,,C,,C,, C,C,C,,C,,!ped-up! | %79
!ped! G,,,G,,,G,,,G,,, G,,,G,,,G,,,G,,,!ped-up! |!ped! G,,G,,G,,G,, G,,G,,G,,G,,!ped-up! | %81
!ped! [G,,,G,,]8!ped-up! |!mf!!ped! [C,,,C,,]8-!ped-up! |!ped! [C,,,C,,]8!ped-up! |] %84
V:3
 x8 | x8 | x8 | x8 | x8 | x8 | x8 | x8 | x8 | x8 | G,,,8 | x8 | x8 | x8 | G,,8 | x8 | A,,,8 | %17
 =F,,,8 | x8 | G,,,8 | A,,,8 | =F,,,8 | x8 | x8 | x8 | x8 | x8 | x8 | x8 | x8 | x8 | x8 | x8 | x8 | %34
 x8 | x8 | x8 | x8 | x8 | x8 | x8 | x8 | x8 | x8 | x8 | x8 | x8 | x8 | x8 | x8 | x8 | x8 | x8 | %53
 x8 | x8 | x6!8vb(! x2!8vb)! | x8 | x8 | x8 |!8vb(! x8!8vb)! | x8 | x8 | x8 |!8vb(! x8!8vb)! | x8 | %65
 x8 | x8 | x8 | x8 | x8 | x8 | x8 | x8 | x8 | x8 | x8 | x8 | x8 | x8 | G,,8 | G,,,4 G,,,2 G,,,2 | %81
 x8 | x8 | x8 |] %84
V:4
 x8 | x8 | x8 | x8 | x8 | x8 | x8 | x8 | x8 | x8 | x8 | x8 | x8 | x8 | x8 | x8 | x8 | x8 | x8 | %19
 x4 B2 d2 | x8 | x8 | x4 G2 c2 | x8 | x8 | x8 | x8 | x8 | x8 | x8 | x8 | x8 | x8 | x8 | x8 | x8 | %36
 x8 | x8 | x8 | D2 F2 G2 A2 | x8 | x8 | x8 | x8 | x8 | x8 | x8 | x8 | x8 | x8 | x8 | x8 | x8 | x8 | %54
 x8 | x8 | x8 | x8 | x8 | x8 | x8 | x8 | x8 | x8 | x EAc x4 | x =FAc z4 | x EGc x4 | x BGD x4 | %68
 x EAc x4 | x Ac=f x4 | x Gce x4 | x cGD- DG B2 | CEAc x4 | C=FAc x4 | CEGc x4 | DGBd x4 | %76
 x cAE x4 | x cA=F x4 | x ecG x4 | x8 | x8 | x8 | x8 | x8 |] %84

